rospo-icon-theme-classic-common/48x48/places/folder-grey-tar.svg

<svg height="48" width="48" xmlns="http://www.w3.org/2000/svg"><rect height="26" opacity=".2" rx="2" width="40" x="4" y="17"/><path d="m4 34c0 1.108.892 2 2 2h36c1.108 0 2-.892 2-2v-22c0-1.108-.892-2-2-2h-20v-2c0-1.108-.892-2-2-2h-14c-1.108 0-2 .892-2 2" fill="#727272"/><rect height="26" opacity=".2" rx="2" width="40" x="4" y="15"/><rect fill="#e4e4e4" height="16" rx="2" width="36" x="6" y="13"/><rect fill="#8e8e8e" height="26" rx="2" width="40" x="4" y="16"/><path d="m6 6c-1.108 0-2 .892-2 2v1c0-1.108.892-2 2-2h14c1.108 0 2 .892 2 2v-1c0-1.108-.892-2-2-2zm16 4v1h20c1.108 0 2 .892 2 2v-1c0-1.108-.892-2-2-2z" fill="#fff" opacity=".1"/><path d="m24 16v1h1v-1zm0 1h-1v1h1zm0 1v1h1v-1zm0 1h-1v1h1zm0 1v1h1v-1zm0 1h-1v1h1zm0 1v1h1v-1zm0 1h-1c-.1561 1.390912 1 1.390912 1 0z" fill="#323232"/><path d="m24 22c-2.21 0-4 1.8-4 4v8c0 2.2 1.79 4 4 4s4-1.8 4-4v-8c0-2.2-1.79-4-4-4zm0 2c1.104 0 2 .8 2 2 0 1-.896 2-2 2s-2-1-2-2c0-1.2.896-2 2-2zm0 6c1.104 0 2 .8 2 2v2c0 1-.896 2-2 2s-2-1-2-2v-2c0-1.2.896-2 2-2z" fill="#323232"/></svg>

<svg xmlns="http://www.w3.org/2000/svg" width="48" height="48" version="1">
 <rect style="opacity:0.2" width="40" height="26" x="4" y="17" rx="2" ry="2"/>
 <path style="fill:#727272" d="M 4,34 C 4,35.108 4.892,36 6,36 H 42 C 43.108,36 44,35.108 44,34 V 12 C 44,10.892 43.108,10 42,10 H 22 V 8 C 22,6.892 21.108,6 20,6 H 6 C 4.892,6 4,6.892 4,8"/>
 <rect style="opacity:0.2" width="40" height="26" x="4" y="15" rx="2" ry="2"/>
 <rect style="fill:#dcdcdc" width="36" height="16" x="6" y="13" rx="2" ry="2"/>
 <rect style="fill:#8e8e8e" width="40" height="26" x="4" y="16" rx="2" ry="2"/>
 <path style="opacity:0.1;fill:#ffffff" d="M 6,6 C 4.892,6 4,6.892 4,8 V 9 C 4,7.892 4.892,7 6,7 H 20 C 21.108,7 22,7.892 22,9 V 8 C 22,6.892 21.108,6 20,6 Z M 22,10 V 11 H 42 C 43.108,11 44,11.892 44,13 V 12 C 44,10.892 43.108,10 42,10 Z"/>
 <path style="fill:#323232" d="M 24 16 L 24 17 L 25 17 L 25 16 L 24 16 z M 24 17 L 23 17 L 23 18 L 24 18 L 24 17 z M 24 18 L 24 19 L 25 19 L 25 18 L 24 18 z M 24 19 L 23 19 L 23 20 L 24 20 L 24 19 z M 24 20 L 24 21 L 25 21 L 25 20 L 24 20 z M 24 21 L 23 21 L 23 22 L 24 22 L 24 21 z M 24 22 L 24 23 L 25 23 L 25 22 L 24 22 z M 24 23 L 23 23 C 22.8439 24.390912 24 24.390912 24 23 z"/>
 <path style="fill:#323232" d="m 24,22 c -2.21,0 -4,1.8 -4,4 l 0,8 c 0,2.2 1.79,4 4,4 2.21,0 4,-1.8 4,-4 l 0,-8 c 0,-2.2 -1.79,-4 -4,-4 z m 0,2 c 1.104,0 2,0.8 2,2 0,1 -0.896,2 -2,2 -1.104,0 -2,-1 -2,-2 0,-1.2 0.896,-2 2,-2 z m 0,6 c 1.104,0 2,0.8 2,2 l 0,2 c 0,1 -0.896,2 -2,2 -1.104,0 -2,-1 -2,-2 l 0,-2 c 0,-1.2 0.896,-2 2,-2 z"/>
</svg>
